public/icons/dog-nosework.svg

<?xml version="1.0" encoding="UTF-8" standalone="no"?>
<svg
   width="218.27361"
   zoomAndPan="magnify"
   viewBox="0 0 163.61789 124.61016"
   height="166.14688"
   preserveAspectRatio="xMidYMid"
   version="1.0"
   id="svg2"
   sodipodi:docname="dog-nosework.svg"
   inkscape:version="1.4 (86a8ad7, 2024-10-11)"
   xmlns:inkscape="http://www.inkscape.org/namespaces/inkscape"
   xmlns:sodipodi="http://sodipodi.sourceforge.net/DTD/sodipodi-0.dtd"
   xmlns="http://www.w3.org/2000/svg"
   xmlns:svg="http://www.w3.org/2000/svg">
  <sodipodi:namedview
     id="namedview2"
     pagecolor="#ffffff"
     bordercolor="#000000"
     borderopacity="0.25"
     inkscape:showpageshadow="2"
     inkscape:pageopacity="0.0"
     inkscape:pagecheckerboard="0"
     inkscape:deskcolor="#d1d1d1"
     inkscape:zoom="3.89"
     inkscape:cx="108.99743"
     inkscape:cy="83.419023"
     inkscape:window-width="2560"
     inkscape:window-height="1369"
     inkscape:window-x="-8"
     inkscape:window-y="-8"
     inkscape:window-maximized="1"
     inkscape:current-layer="svg2" />
  <defs
     id="defs1">
    <clipPath
       id="fa57348457">
      <path
         d="M 30.402344,49.980469 H 194.56641 V 175 H 30.402344 Z m 0,0"
         clip-rule="nonzero"
         id="path1" />
    </clipPath>
  </defs>
  <g
     clip-path="url(#fa57348457)"
     id="g2"
     transform="translate(-30.58353,-49.980469)">
    <path
       fill="#3e745f"
       d="m 193.53906,160.26172 c -2.52734,-5.48047 -3.80469,-11.53906 -3.71484,-17.57031 0.0117,-1.23829 0.0859,-2.53907 -0.44141,-3.67579 -0.52344,-1.16406 -1.58594,-1.96484 -2.63672,-2.70312 -1.91406,-1.32813 -3.92968,-2.55469 -5.58203,-4.20313 -1.65234,-1.65234 -2.9414,-3.8164 -2.9414,-6.15624 -0.0234,-8.35938 -0.98829,-17.39063 -5.95313,-24.125 -1.11328,-1.51172 -2.55469,-2.76563 -3.70312,-4.253911 -1.15235,-1.488281 -2.01563,-3.363281 -1.69141,-5.214844 0.375,-2.152344 1.07812,-4.128906 1.77734,-6.195313 0.75,-2.214843 0.71485,-4.617187 0.38672,-6.929687 C 167.55078,68.824219 159.79297,59.566406 149.82031,56.25 c -5.11719,-1.703125 -11.13281,-2.179688 -14.64844,-6.269531 -0.5,3.226562 1.3125,6.457031 3.77735,8.609375 2.46484,2.152344 5.53125,3.464844 8.44531,4.941406 4.23047,2.125 8.49609,4.855469 10.52344,9.121094 0.98828,2.078125 1.36328,4.339844 1.52734,6.644531 -0.0156,0 -0.0273,0 -0.0391,0 0.0391,0.324219 0.0625,0.660156 0.0859,0.988281 0.0391,0.976563 0.0508,1.949219 0.0625,2.914063 0.0156,0.914062 0,1.890625 -0.5,2.652343 -0.42578,0.636719 -1.13672,1.027344 -1.83985,1.300782 -2.40234,0.953125 -5.0039,0.9375 -7.61718,0.828125 -0.76563,-0.164063 -1.55079,-0.300781 -1.97657,-0.152344 -0.0391,0.01172 -0.0625,0.02734 -0.0898,0.05078 -0.625,-0.02344 -1.25,-0.05078 -1.875,-0.05078 -1.81641,-0.01172 -3.62891,0.136719 -5.44531,0.351563 0.0156,-0.03906 0.0273,-0.07422 0.0391,-0.101563 l -0.39844,0.136719 c 0.0117,-0.0625 0.0352,-0.136719 0.0469,-0.199219 -12.41016,1.652344 -43.101565,8.996094 -44.539065,9.234375 -0.953125,0.148438 -2.214844,0.363281 -3.242187,0.800781 -0.136719,0.02344 -0.273438,0.05078 -0.425782,0.07422 -3.664062,0.539062 -6.894531,1.203125 -8.921875,2.027339 -3.527343,1.41407 -10.472656,7.00782 -14.738281,10.59766 -0.398438,0.33984 -0.761719,0.71484 -1.085938,1.11328 -0.953124,0.77735 -1.902343,1.52735 -2.878906,2.22656 -0.789062,0.5625 -9.222656,11.03516 -12.324218,13.875 -0.863282,0.78907 -2.003907,0.26563 -3.003907,0.87891 -1.101562,0.6875 -2.328125,1.14844 -3.402343,1.88672 -1.152344,0.80078 -1.726563,3.28125 -2.742188,4.30469 -0.03516,0.0391 -0.08594,0.0742 -0.125,0.125 -0.222656,0.19921 -0.4375,0.375 -0.636719,0.53906 -0.636719,0.51172 -1.339843,0.97656 -1.976562,1.48828 -0.363281,0.27734 -0.6875,0.53906 -1,0.85156 -0.402344,0.36328 -0.828125,0.8125 -0.964844,1.22656 -0.710937,1.125 -1.476563,2.85157 -2.539063,5.89063 -0.5,1.44141 -0.527343,2.69141 -0.351562,3.85547 -0.601562,0.5 -0.664062,1.39062 -0.222656,2.03906 0.824218,1.22656 1.523437,4.01563 1.585937,4.64063 0,0.17578 -0.01172,0.35156 -0.03516,0.53906 -0.203125,1.97656 -1.566406,3.58984 -2.667969,5.2539 -1.285156,1.94141 -2.464844,4.16797 -3.074218,6.42188 -0.164063,0.51172 0.01172,1.09766 0.335937,1.52344 0.363281,0.47656 0.875,0.78906 1.375,1.08984 0.914063,0.53906 1.867187,1.05078 2.816406,1.52734 0.964844,0.64844 1.964844,1.21094 3.039063,1.66407 2.640625,1.08593 5.78125,1.30078 8.257812,-0.125 0.214844,-0.125 0.414063,-0.26563 0.625,-0.39063 0.765625,-0.10937 1.503906,-0.54687 2.105469,-1.03515 0.335937,-0.10157 0.6875,-0.1875 1.035156,-0.28907 1.679688,-0.47656 3.503907,-1.35156 3.980469,-3.02734 0.714844,0.11328 1.425781,0.16016 2.140625,0.13672 1.199219,0.0508 2.402344,-0.0508 3.539063,-0.44922 1.265624,-0.45313 2.378906,-1.25391 3.355468,-2.16406 0.01172,-0.0156 0.02344,-0.0273 0.04687,-0.0508 1.050781,-0.86329 1.941407,-1.89063 2.605469,-3.07813 0.136719,0.0117 0.410156,-0.5 0.738281,-1.33984 1.125,-2.125 1.851563,-4.48047 2.175781,-6.90625 0.664063,-2.46485 1.136719,-4.65235 1,-5.15625 1.851563,-0.0625 3.652344,-1.125 4.59375,-2.71485 1.226563,2.07813 5.203126,1.15235 8.195313,0.0781 1.625,-0.58985 3.277344,0.76172 3.027344,2.46484 -0.08984,0.59766 -0.1875,1.1875 -0.289063,1.73828 -0.726562,3.31641 -1.761718,6.56641 -3.078125,9.70703 -1.023437,2.41797 -2.539062,5.03125 -5.117187,5.57032 -0.824219,0.17578 -1.664063,0.0977 -2.5,0.17578 -2.066406,0.1875 -4.03125,1.3125 -5.242188,3 -0.550781,0.77734 -0.929687,1.91406 -0.300781,2.6289 0.3125,0.35157 0.785156,0.5 1.25,0.58594 1.476563,0.28906 2.988281,0.15235 4.464844,-0.125 3.691406,-0.67578 7.269531,-2.19922 10.125,-4.6289 0.773437,-0.66016 1.8125,-1.42579 2.6875,-0.91407 0.339843,0.20313 0.601562,0.58985 1.003906,0.61328 0.3125,0.0273 0.597656,-0.19921 0.800781,-0.44921 0.722656,-0.90235 0.800782,-2.14063 0.960938,-3.30469 0.6875,-2.14844 1.1875,-3.66406 1.714844,-5.00391 0.386718,-0.86328 0.789062,-1.73828 1.175781,-2.60156 0.613281,-1.1875 1.390625,-2.46484 2.492187,-4.19141 0.296875,-0.47656 1.175782,-2.91406 1.726563,-4.58984 -0.203125,4.50391 -0.08984,9.45703 3.02734,12.66016 2.33985,2.40234 5.89063,3.21484 9.2461,3.11718 3.35156,-0.10156 6.60547,-1.0039 9.92187,-1.53906 0.98828,-0.16406 2.07422,-0.33984 2.6875,-1.12891 0.66406,-0.85156 0.47656,-2.15234 -0.13672,-3.03906 -0.625,-0.88672 -1.58984,-1.46484 -2.51562,-2.02734 -1.5,-0.88672 -3.15235,-1.8125 -4.87891,-1.5625 -1.85156,0.26172 -3.5664,1.85156 -5.34375,1.30078 -0.16015,-0.89063 -1.21094,-1.50391 -2.0625,-1.20313 0.48828,-3.33984 1.28906,-6.6289 2.36328,-9.83203 0.0508,-0.15234 0.10157,-0.28906 0.16407,-0.4375 l 11.41015,-7.07031 c 2.10156,-1.15234 3.48047,-1.73828 5.05469,-2.52734 1.50391,-0.66407 3.1289,-1.65235 4.54297,-2.58985 1.27734,-0.8125 2.51562,-1.67578 3.66406,-2.65234 1.31641,0.92578 1.35156,2.80078 1.85156,4.32812 1.11328,3.32813 4.76953,5.28125 5.95703,8.58204 0.67578,1.89062 0.46485,3.98046 0.0234,5.94531 -0.42187,1.96484 -1.07422,3.9414 -2.375,5.48047 -1.39062,1.65234 -3.39062,2.64062 -5.33203,3.58984 -1.51172,0.73828 -3.08984,1.5 -4.77734,1.5625 -0.5625,0.0273 -1.14063,-0.0352 -1.66407,0.16406 -0.52734,0.19922 -0.97656,0.76172 -0.80078,1.30078 0.14844,0.46485 0.66406,0.67579 1.125,0.83985 2.02735,0.69922 4.08985,1.41406 6.23047,1.58984 2.14063,0.17188 4.41797,-0.23828 6.09375,-1.57812 0.96484,-0.77735 1.6875,-1.80078 2.47656,-2.76563 2.66797,-3.24219 6.1836,-5.67969 9.09766,-8.69531 0.67578,-0.6875 1.32422,-1.4375 1.6875,-2.32813 0.625,-1.52734 0.3125,-3.28906 -0.33594,-4.80468 -0.65234,-1.51172 -1.64062,-2.86328 -2.41406,-4.31641 -1.14063,-2.11328 -1.85156,-4.66797 -0.97656,-6.90625 0.66406,-1.6875 2.125,-2.92578 3.53906,-4.07812 0.40234,-0.32422 0.83984,-0.66407 1.32812,-0.77735 0,0 3,1.75391 4.39063,3.41797 0.14844,0.21094 0.30078,0.41016 0.44922,0.625 1.39062,2.46484 3.74219,4.83984 6.19531,6.24219 0,0 0,0 0.0117,0 0.57422,0.39062 1.17578,0.76562 1.77734,1.125 3.44141,2.0664 7.19532,3.76953 10.32032,6.26953 3.40625,2.72656 6.01953,6.40625 7.48437,10.52344 0.61328,1.73828 0.97656,3.85547 -0.16406,5.3164 -0.5625,0.73828 -1.42578,1.17578 -2.11328,1.78907 -0.6875,0.61328 -1.25,1.57812 -0.91407,2.4414 2.61329,0.5 5.29297,0.63672 7.95704,0.5625 1.3125,-0.0391 2.8789,-0.3125 3.39062,-1.52734 0.33984,-0.97656 -0.13672,-2.05078 -0.57422,-3 z m 0,0"
       fill-opacity="1"
       fill-rule="nonzero"
       id="path2" />
  </g>
</svg>

<svg xmlns="http://www.w3.org/2000/svg" xmlns:xlink="http://www.w3.org/1999/xlink" width="300" zoomAndPan="magnify" viewBox="0 0 224.87999 225" height="300" preserveAspectRatio="xMidYMid meet" version="1.0"><defs><clipPath id="fa57348457"><path d="M 30.402344 49.980469 L 194.566406 49.980469 L 194.566406 175 L 30.402344 175 Z M 30.402344 49.980469 " clip-rule="nonzero"/></clipPath></defs><g clip-path="url(#fa57348457)"><path fill="#3e745f" d="M 193.539062 160.261719 C 191.011719 154.78125 189.734375 148.722656 189.824219 142.691406 C 189.835938 141.453125 189.910156 140.152344 189.382812 139.015625 C 188.859375 137.851562 187.796875 137.050781 186.746094 136.3125 C 184.832031 134.984375 182.816406 133.757812 181.164062 132.109375 C 179.511719 130.457031 178.222656 128.292969 178.222656 125.953125 C 178.199219 117.59375 177.234375 108.5625 172.269531 101.828125 C 171.15625 100.316406 169.714844 99.0625 168.566406 97.574219 C 167.414062 96.085938 166.550781 94.210938 166.875 92.359375 C 167.25 90.207031 167.953125 88.230469 168.652344 86.164062 C 169.402344 83.949219 169.367188 81.546875 169.039062 79.234375 C 167.550781 68.824219 159.792969 59.566406 149.820312 56.25 C 144.703125 54.546875 138.6875 54.070312 135.171875 49.980469 C 134.671875 53.207031 136.484375 56.4375 138.949219 58.589844 C 141.414062 60.742188 144.480469 62.054688 147.394531 63.53125 C 151.625 65.65625 155.890625 68.386719 157.917969 72.652344 C 158.90625 74.730469 159.28125 76.992188 159.445312 79.296875 C 159.429688 79.296875 159.417969 79.296875 159.40625 79.296875 C 159.445312 79.621094 159.46875 79.957031 159.492188 80.285156 C 159.53125 81.261719 159.542969 82.234375 159.554688 83.199219 C 159.570312 84.113281 159.554688 85.089844 159.054688 85.851562 C 158.628906 86.488281 157.917969 86.878906 157.214844 87.152344 C 154.8125 88.105469 152.210938 88.089844 149.597656 87.980469 C 148.832031 87.816406 148.046875 87.679688 147.621094 87.828125 C 147.582031 87.839844 147.558594 87.855469 147.53125 87.878906 C 146.90625 87.855469 146.28125 87.828125 145.65625 87.828125 C 143.839844 87.816406 142.027344 87.964844 140.210938 88.179688 C 140.226562 88.140625 140.238281 88.105469 140.25 88.078125 L 139.851562 88.214844 C 139.863281 88.152344 139.886719 88.078125 139.898438 88.015625 C 127.488281 89.667969 96.796875 97.011719 95.359375 97.25 C 94.40625 97.398438 93.144531 97.613281 92.117188 98.050781 C 91.980469 98.074219 91.84375 98.101562 91.691406 98.125 C 88.027344 98.664062 84.796875 99.328125 82.769531 100.152344 C 79.242188 101.566406 72.296875 107.160156 68.03125 110.75 C 67.632812 111.089844 67.269531 111.464844 66.945312 111.863281 C 65.992188 112.640625 65.042969 113.390625 64.066406 114.089844 C 63.277344 114.652344 54.84375 125.125 51.742188 127.964844 C 50.878906 128.753906 49.738281 128.230469 48.738281 128.84375 C 47.636719 129.53125 46.410156 129.992188 45.335938 130.730469 C 44.183594 131.53125 43.609375 134.011719 42.59375 135.035156 C 42.558594 135.074219 42.507812 135.109375 42.46875 135.160156 C 42.246094 135.359375 42.03125 135.535156 41.832031 135.699219 C 41.195312 136.210938 40.492188 136.675781 39.855469 137.1875 C 39.492188 137.464844 39.167969 137.726562 38.855469 138.039062 C 38.453125 138.402344 38.027344 138.851562 37.890625 139.265625 C 37.179688 140.390625 36.414062 142.117188 35.351562 145.15625 C 34.851562 146.597656 34.824219 147.847656 35 149.011719 C 34.398438 149.511719 34.335938 150.402344 34.777344 151.050781 C 35.601562 152.277344 36.300781 155.066406 36.363281 155.691406 C 36.363281 155.867188 36.351562 156.042969 36.328125 156.230469 C 36.125 158.207031 34.761719 159.820312 33.660156 161.484375 C 32.375 163.425781 31.195312 165.652344 30.585938 167.90625 C 30.421875 168.417969 30.597656 169.003906 30.921875 169.429688 C 31.285156 169.90625 31.796875 170.21875 32.296875 170.519531 C 33.210938 171.058594 34.164062 171.570312 35.113281 172.046875 C 36.078125 172.695312 37.078125 173.257812 38.152344 173.710938 C 40.792969 174.796875 43.933594 175.011719 46.410156 173.585938 C 46.625 173.460938 46.824219 173.320312 47.035156 173.195312 C 47.800781 173.085938 48.539062 172.648438 49.140625 172.160156 C 49.476562 172.058594 49.828125 171.972656 50.175781 171.871094 C 51.855469 171.394531 53.679688 170.519531 54.15625 168.84375 C 54.871094 168.957031 55.582031 169.003906 56.296875 168.980469 C 57.496094 169.03125 58.699219 168.929688 59.835938 168.53125 C 61.101562 168.078125 62.214844 167.277344 63.191406 166.367188 C 63.203125 166.351562 63.214844 166.339844 63.238281 166.316406 C 64.289062 165.453125 65.179688 164.425781 65.84375 163.238281 C 65.980469 163.25 66.253906 162.738281 66.582031 161.898438 C 67.707031 159.773438 68.433594 157.417969 68.757812 154.992188 C 69.421875 152.527344 69.894531 150.339844 69.757812 149.835938 C 71.609375 149.773438 73.410156 148.710938 74.351562 147.121094 C 75.578125 149.199219 79.554688 148.273438 82.546875 147.199219 C 84.171875 146.609375 85.824219 147.960938 85.574219 149.664062 C 85.484375 150.261719 85.386719 150.851562 85.285156 151.402344 C 84.558594 154.71875 83.523438 157.96875 82.207031 161.109375 C 81.183594 163.527344 79.667969 166.140625 77.089844 166.679688 C 76.265625 166.855469 75.425781 166.777344 74.589844 166.855469 C 72.523438 167.042969 70.558594 168.167969 69.347656 169.855469 C 68.796875 170.632812 68.417969 171.769531 69.046875 172.484375 C 69.359375 172.835938 69.832031 172.984375 70.296875 173.070312 C 71.773438 173.359375 73.285156 173.222656 74.761719 172.945312 C 78.453125 172.269531 82.03125 170.746094 84.886719 168.316406 C 85.660156 167.65625 86.699219 166.890625 87.574219 167.402344 C 87.914062 167.605469 88.175781 167.992188 88.578125 168.015625 C 88.890625 168.042969 89.175781 167.816406 89.378906 167.566406 C 90.101562 166.664062 90.179688 165.425781 90.339844 164.261719 C 91.027344 162.113281 91.527344 160.597656 92.054688 159.257812 C 92.441406 158.394531 92.84375 157.519531 93.230469 156.65625 C 93.84375 155.46875 94.621094 154.191406 95.722656 152.464844 C 96.019531 151.988281 96.898438 149.550781 97.449219 147.875 C 97.246094 152.378906 97.359375 157.332031 100.476562 160.535156 C 102.816406 162.9375 106.367188 163.75 109.722656 163.652344 C 113.074219 163.550781 116.328125 162.648438 119.644531 162.113281 C 120.632812 161.949219 121.71875 161.773438 122.332031 160.984375 C 122.996094 160.132812 122.808594 158.832031 122.195312 157.945312 C 121.570312 157.058594 120.605469 156.480469 119.679688 155.917969 C 118.179688 155.03125 116.527344 154.105469 114.800781 154.355469 C 112.949219 154.617188 111.234375 156.207031 109.457031 155.65625 C 109.296875 154.765625 108.246094 154.152344 107.394531 154.453125 C 107.882812 151.113281 108.683594 147.824219 109.757812 144.621094 C 109.808594 144.46875 109.859375 144.332031 109.921875 144.183594 L 121.332031 137.113281 C 123.433594 135.960938 124.8125 135.375 126.386719 134.585938 C 127.890625 133.921875 129.515625 132.933594 130.929688 131.996094 C 132.207031 131.183594 133.445312 130.320312 134.59375 129.34375 C 135.910156 130.269531 135.945312 132.144531 136.445312 133.671875 C 137.558594 137 141.214844 138.953125 142.402344 142.253906 C 143.078125 144.144531 142.867188 146.234375 142.425781 148.199219 C 142.003906 150.164062 141.351562 152.140625 140.050781 153.679688 C 138.660156 155.332031 136.660156 156.320312 134.71875 157.269531 C 133.207031 158.007812 131.628906 158.769531 129.941406 158.832031 C 129.378906 158.859375 128.800781 158.796875 128.277344 158.996094 C 127.75 159.195312 127.300781 159.757812 127.476562 160.296875 C 127.625 160.761719 128.140625 160.972656 128.601562 161.136719 C 130.628906 161.835938 132.691406 162.550781 134.832031 162.726562 C 136.972656 162.898438 139.25 162.488281 140.925781 161.148438 C 141.890625 160.371094 142.613281 159.347656 143.402344 158.382812 C 146.070312 155.140625 149.585938 152.703125 152.5 149.6875 C 153.175781 149 153.824219 148.25 154.1875 147.359375 C 154.8125 145.832031 154.5 144.070312 153.851562 142.554688 C 153.199219 141.042969 152.210938 139.691406 151.4375 138.238281 C 150.296875 136.125 149.585938 133.570312 150.460938 131.332031 C 151.125 129.644531 152.585938 128.40625 154 127.253906 C 154.402344 126.929688 154.839844 126.589844 155.328125 126.476562 C 155.328125 126.476562 158.328125 128.230469 159.71875 129.894531 C 159.867188 130.105469 160.019531 130.304688 160.167969 130.519531 C 161.558594 132.984375 163.910156 135.359375 166.363281 136.761719 C 166.363281 136.761719 166.363281 136.761719 166.375 136.761719 C 166.949219 137.152344 167.550781 137.527344 168.152344 137.886719 C 171.59375 139.953125 175.347656 141.65625 178.472656 144.15625 C 181.878906 146.882812 184.492188 150.5625 185.957031 154.679688 C 186.570312 156.417969 186.933594 158.535156 185.792969 159.996094 C 185.230469 160.734375 184.367188 161.171875 183.679688 161.785156 C 182.992188 162.398438 182.429688 163.363281 182.765625 164.226562 C 185.378906 164.726562 188.058594 164.863281 190.722656 164.789062 C 192.035156 164.75 193.601562 164.476562 194.113281 163.261719 C 194.453125 162.285156 193.976562 161.210938 193.539062 160.261719 Z M 193.539062 160.261719 " fill-opacity="1" fill-rule="nonzero"/></g></svg>
